Newaita-dark/.places-bluegray/32/folder-git.svg

<svg xmlns="http://www.w3.org/2000/svg" xmlns:xlink="http://www.w3.org/1999/xlink" width="32px" height="32px" viewBox="0 0 32 32" version="1.1">
<defs>
<linearGradient id="linear0" gradientUnits="userSpaceOnUse" x1="254" y1="233.5" x2="254" y2="254.667007" gradientTransform="matrix(0.062505,0,0,0.062505,0,13.439)">
<stop offset="0" style="stop-color:rgb(0%,0%,0%);stop-opacity:0.275;"/>
<stop offset="1" style="stop-color:rgb(0%,0%,0%);stop-opacity:0;"/>
</linearGradient>
<radialGradient id="radial0" gradientUnits="userSpaceOnUse" cx="450.908997" cy="189.578995" fx="450.908997" fy="189.578995" r="21.167" gradientTransform="matrix(0,-0.07813,-0.14064,0,54.115002,63.595001)">
<stop offset="0" style="stop-color:rgb(0%,0%,0%);stop-opacity:0.314;"/>
<stop offset="0.222" style="stop-color:rgb(0%,0%,0%);stop-opacity:0.275;"/>
<stop offset="1" style="stop-color:rgb(0%,0%,0%);stop-opacity:0;"/>
</radialGradient>
<radialGradient id="radial1" gradientUnits="userSpaceOnUse" cx="450.908997" cy="189.578995" fx="450.908997" fy="189.578995" r="21.167" gradientTransform="matrix(0,0.07813,0.14064,0,-22.362,-7.5275)">
<stop offset="0" style="stop-color:rgb(0%,0%,0%);stop-opacity:0.314;"/>
<stop offset="0.222" style="stop-color:rgb(0%,0%,0%);stop-opacity:0.275;"/>
<stop offset="1" style="stop-color:rgb(0%,0%,0%);stop-opacity:0;"/>
</radialGradient>
<radialGradient id="radial2" gradientUnits="userSpaceOnUse" cx="450.908997" cy="189.578995" fx="450.908997" fy="189.578995" r="21.167" gradientTransform="matrix(0,-0.07813,0.14064,0,-22.362,63.595001)">
<stop offset="0" style="stop-color:rgb(0%,0%,0%);stop-opacity:0.314;"/>
<stop offset="0.222" style="stop-color:rgb(0%,0%,0%);stop-opacity:0.275;"/>
<stop offset="1" style="stop-color:rgb(0%,0%,0%);stop-opacity:0;"/>
</radialGradient>
<radialGradient id="radial3" gradientUnits="userSpaceOnUse" cx="450.908997" cy="189.578995" fx="450.908997" fy="189.578995" r="21.167" gradientTransform="matrix(0,0.07813,-0.14064,0,54.115002,-7.5275)">
<stop offset="0" style="stop-color:rgb(0%,0%,0%);stop-opacity:0.314;"/>
<stop offset="0.222" style="stop-color:rgb(0%,0%,0%);stop-opacity:0.275;"/>
<stop offset="1" style="stop-color:rgb(0%,0%,0%);stop-opacity:0;"/>
</radialGradient>
<linearGradient id="linear1" gradientUnits="userSpaceOnUse" x1="254" y1="-147.5" x2="254" y2="-31.083" gradientTransform="matrix(0.062505,0,0,0.062505,0,13.439)">
<stop offset="0" style="stop-color:rgb(64.313728%,64.313728%,64.313728%);stop-opacity:0;"/>
<stop offset="1" style="stop-color:rgb(100%,100%,100%);stop-opacity:0.196;"/>
</linearGradient>
<linearGradient id="linear2" gradientUnits="userSpaceOnUse" x1="254" y1="233.5" x2="254" y2="-105.167" gradientTransform="matrix(0.062505,0,0,0.062505,0,13.439)">
<stop offset="0" style="stop-color:rgb(34.509805%,34.509805%,34.509805%);stop-opacity:0;"/>
<stop offset="1" style="stop-color:rgb(98.039216%,98.039216%,98.039216%);stop-opacity:0.196;"/>
</linearGradient>
<linearGradient id="linear3" gradientUnits="userSpaceOnUse" x1="254" y1="-147.5" x2="254" y2="233.5" gradientTransform="matrix(0.062505,0,0,0.062505,0,13.439)">
<stop offset="0" style="stop-color:rgb(64.313728%,64.313728%,64.313728%);stop-opacity:0;"/>
<stop offset="1" style="stop-color:rgb(100%,100%,100%);stop-opacity:0.196;"/>
</linearGradient>
</defs>
<g id="surface1">
<path style=" stroke:none;fill-rule:nonzero;fill:url(#linear0);" d="M 3.96875 28.03125 L 27.78125 28.03125 L 27.78125 29.359375 L 3.96875 29.359375 Z M 3.96875 28.03125 "/>
<path style=" stroke:none;fill-rule:nonzero;fill:url(#radial0);" d="M 27.78125 28.03125 L 30.429688 28.03125 L 30.429688 26.710938 L 27.78125 26.710938 Z M 27.78125 28.03125 "/>
<path style=" stroke:none;fill-rule:nonzero;fill:url(#radial1);" d="M 3.96875 28.03125 L 1.320312 28.03125 L 1.320312 29.359375 L 3.96875 29.359375 Z M 3.96875 28.03125 "/>
<path style=" stroke:none;fill-rule:nonzero;fill:url(#radial2);" d="M 3.96875 28.03125 L 1.320312 28.03125 L 1.320312 26.710938 L 3.96875 26.710938 Z M 3.96875 28.03125 "/>
<path style=" stroke:none;fill-rule:nonzero;fill:url(#radial3);" d="M 27.78125 28.03125 L 30.429688 28.03125 L 30.429688 29.359375 L 27.78125 29.359375 Z M 27.78125 28.03125 "/>
<path style=" stroke:none;fill-rule:nonzero;fill:rgb(32.941177%,43.137255%,47.843137%);fill-opacity:1;" d="M 7.277344 4.21875 L 28.773438 4.21875 C 29.125 4.21875 29.464844 4.359375 29.710938 4.605469 C 29.960938 4.855469 30.097656 5.191406 30.097656 5.542969 L 30.097656 10.503906 C 30.097656 11.234375 29.503906 11.828125 28.773438 11.824219 L 7.277344 11.824219 C 6.546875 11.828125 5.953125 11.234375 5.953125 10.503906 L 5.953125 5.542969 C 5.953125 4.8125 6.546875 4.21875 7.277344 4.21875 Z M 7.277344 4.21875 "/>
<path style=" stroke:none;fill-rule:nonzero;fill:url(#linear1);" d="M 7.277344 4.21875 L 28.773438 4.21875 C 29.125 4.21875 29.464844 4.359375 29.710938 4.605469 C 29.960938 4.855469 30.097656 5.191406 30.097656 5.542969 L 30.097656 10.503906 C 30.097656 11.234375 29.503906 11.828125 28.773438 11.824219 L 7.277344 11.824219 C 6.546875 11.828125 5.953125 11.234375 5.953125 10.503906 L 5.953125 5.542969 C 5.953125 4.8125 6.546875 4.21875 7.277344 4.21875 Z M 7.277344 4.21875 "/>
<path style=" stroke:none;fill-rule:nonzero;fill:rgb(90.196079%,90.196079%,90.196079%);fill-opacity:0.588;" d="M 7.277344 4.21875 C 6.925781 4.21875 6.589844 4.355469 6.339844 4.605469 C 6.089844 4.855469 5.953125 5.191406 5.953125 5.542969 L 5.953125 5.707031 C 5.953125 5.355469 6.09375 5.019531 6.339844 4.769531 C 6.589844 4.523438 6.925781 4.382812 7.277344 4.386719 L 28.773438 4.386719 C 29.125 4.382812 29.464844 4.523438 29.710938 4.769531 C 29.960938 5.019531 30.097656 5.355469 30.097656 5.707031 L 30.097656 5.542969 C 30.101562 5.191406 29.960938 4.855469 29.710938 4.605469 C 29.464844 4.355469 29.125 4.21875 28.773438 4.21875 Z M 7.277344 4.21875 "/>
<path style=" stroke:none;fill-rule:nonzero;fill:rgb(12.941177%,12.941177%,12.941177%);fill-opacity:1;" d="M 7.277344 4.125 C 6.496094 4.125 5.859375 4.761719 5.859375 5.542969 L 5.859375 10.503906 C 5.859375 10.878906 6.007812 11.242188 6.273438 11.507812 C 6.539062 11.773438 6.902344 11.921875 7.277344 11.921875 L 28.773438 11.921875 C 29.152344 11.921875 29.511719 11.773438 29.777344 11.507812 C 30.042969 11.242188 30.191406 10.878906 30.191406 10.503906 L 30.191406 5.542969 C 30.191406 4.761719 29.558594 4.125 28.773438 4.125 Z M 7.277344 4.3125 L 28.773438 4.3125 C 29.101562 4.3125 29.414062 4.441406 29.644531 4.671875 C 29.878906 4.902344 30.007812 5.214844 30.003906 5.542969 L 30.003906 10.503906 C 30.007812 10.832031 29.875 11.144531 29.644531 11.375 C 29.414062 11.605469 29.101562 11.734375 28.773438 11.734375 L 7.277344 11.734375 C 6.949219 11.734375 6.636719 11.605469 6.40625 11.375 C 6.175781 11.144531 6.046875 10.832031 6.046875 10.503906 L 6.046875 5.542969 C 6.046875 5.214844 6.175781 4.902344 6.40625 4.671875 C 6.636719 4.441406 6.949219 4.3125 7.277344 4.3125 Z M 7.277344 4.3125 "/>
<path style=" stroke:none;fill-rule:nonzero;fill:rgb(47.058824%,56.470591%,61.176473%);fill-opacity:1;" d="M 2.648438 6.863281 C 2.296875 6.863281 1.957031 7.003906 1.710938 7.25 C 1.460938 7.5 1.320312 7.835938 1.324219 8.1875 L 1.324219 26.710938 C 1.320312 27.0625 1.460938 27.398438 1.710938 27.648438 C 1.957031 27.894531 2.296875 28.035156 2.648438 28.03125 L 29.109375 28.03125 C 29.457031 28.035156 29.796875 27.894531 30.042969 27.648438 C 30.292969 27.398438 30.429688 27.0625 30.429688 26.710938 L 30.429688 10.171875 L 12.570312 10.171875 C 12.21875 10.171875 11.878906 10.035156 11.632812 9.785156 C 11.382812 9.539062 11.246094 9.199219 11.246094 8.847656 L 11.246094 6.863281 Z M 2.648438 6.863281 "/>
<path style=" stroke:none;fill-rule:nonzero;fill:url(#linear2);" d="M 2.648438 6.863281 C 2.296875 6.863281 1.957031 7.003906 1.710938 7.25 C 1.460938 7.5 1.320312 7.835938 1.324219 8.1875 L 1.324219 26.710938 C 1.320312 27.0625 1.460938 27.398438 1.710938 27.648438 C 1.957031 27.894531 2.296875 28.035156 2.648438 28.03125 L 29.109375 28.03125 C 29.457031 28.035156 29.796875 27.894531 30.042969 27.648438 C 30.292969 27.398438 30.429688 27.0625 30.429688 26.710938 L 30.429688 10.171875 L 12.570312 10.171875 C 12.21875 10.171875 11.878906 10.035156 11.632812 9.785156 C 11.382812 9.539062 11.246094 9.199219 11.246094 8.847656 L 11.246094 6.863281 Z M 2.648438 6.863281 "/>
<path style=" stroke:none;fill-rule:nonzero;fill:rgb(0%,0%,0%);fill-opacity:0.196;" d="M 2.648438 28.03125 C 2.296875 28.035156 1.957031 27.894531 1.710938 27.648438 C 1.460938 27.398438 1.320312 27.0625 1.324219 26.710938 L 1.324219 26.546875 C 1.320312 26.894531 1.460938 27.234375 1.710938 27.480469 C 1.957031 27.730469 2.296875 27.871094 2.648438 27.867188 L 29.109375 27.867188 C 29.457031 27.871094 29.796875 27.730469 30.042969 27.480469 C 30.292969 27.234375 30.429688 26.894531 30.429688 26.546875 L 30.429688 26.710938 C 30.429688 27.0625 30.292969 27.398438 30.042969 27.648438 C 29.796875 27.894531 29.457031 28.035156 29.109375 28.03125 Z M 2.648438 28.03125 "/>
<path style=" stroke:none;fill-rule:nonzero;fill:rgb(90.196079%,90.196079%,90.196079%);fill-opacity:0.937;" d="M 2.648438 6.863281 C 2.296875 6.863281 1.957031 7.003906 1.710938 7.25 C 1.460938 7.5 1.320312 7.835938 1.324219 8.1875 L 1.324219 8.351562 C 1.320312 8.003906 1.460938 7.664062 1.710938 7.417969 C 1.957031 7.167969 2.296875 7.03125 2.648438 7.03125 L 11.246094 7.03125 L 11.246094 6.863281 Z M 12.488281 10.257812 C 12.136719 10.257812 11.796875 10.117188 11.550781 9.867188 C 11.300781 9.621094 11.164062 9.28125 11.164062 8.929688 L 11.164062 8.765625 C 11.164062 9.117188 11.300781 9.457031 11.550781 9.703125 C 11.796875 9.953125 12.136719 10.089844 12.488281 10.089844 L 30.429688 10.089844 L 30.429688 10.257812 Z M 12.488281 10.257812 "/>
<path style=" stroke:none;fill-rule:nonzero;fill:rgb(12.941177%,12.941177%,12.941177%);fill-opacity:1;" d="M 2.648438 6.773438 C 2.269531 6.769531 1.910156 6.917969 1.644531 7.183594 C 1.378906 7.449219 1.226562 7.8125 1.226562 8.1875 L 1.226562 26.710938 C 1.226562 27.085938 1.378906 27.449219 1.644531 27.714844 C 1.910156 27.980469 2.269531 28.128906 2.648438 28.128906 L 29.109375 28.128906 C 29.484375 28.128906 29.84375 27.976562 30.109375 27.710938 C 30.375 27.445312 30.523438 27.085938 30.523438 26.710938 L 30.523438 9.984375 L 12.570312 9.984375 C 12.242188 9.984375 11.929688 9.855469 11.699219 9.625 C 11.46875 9.394531 11.339844 9.082031 11.339844 8.757812 L 11.339844 6.773438 Z M 2.648438 6.960938 L 11.152344 6.960938 L 11.152344 8.757812 C 11.152344 9.132812 11.300781 9.492188 11.566406 9.757812 C 11.832031 10.023438 12.191406 10.171875 12.570312 10.171875 L 30.335938 10.171875 L 30.335938 26.710938 C 30.335938 27.039062 30.207031 27.351562 29.976562 27.582031 C 29.746094 27.8125 29.433594 27.941406 29.109375 27.941406 L 2.648438 27.941406 C 2.320312 27.941406 2.007812 27.8125 1.777344 27.582031 C 1.542969 27.351562 1.414062 27.039062 1.414062 26.710938 L 1.414062 8.1875 C 1.414062 7.859375 1.542969 7.546875 1.777344 7.316406 C 2.007812 7.085938 2.320312 6.957031 2.648438 6.960938 Z M 2.648438 6.960938 "/>
<path style=" stroke:none;fill-rule:nonzero;fill:rgb(32.941177%,43.137255%,47.843137%);fill-opacity:1;" d="M 12.863281 12.785156 C 12.023438 12.785156 11.269531 13.316406 10.992188 14.113281 L 10.878906 14.113281 C 10.515625 14.113281 10.21875 14.40625 10.21875 14.773438 C 10.21875 15.136719 10.515625 15.433594 10.878906 15.433594 L 10.992188 15.433594 C 11.269531 16.230469 12.023438 16.761719 12.863281 16.757812 C 13.15625 16.757812 13.433594 16.695312 13.679688 16.582031 L 17.671875 20.570312 C 17.554688 20.828125 17.492188 21.105469 17.492188 21.386719 C 17.492188 22.488281 18.382812 23.371094 19.480469 23.371094 C 20.007812 23.375 20.511719 23.164062 20.886719 22.792969 C 21.257812 22.417969 21.464844 21.914062 21.464844 21.386719 C 21.464844 20.859375 21.257812 20.355469 20.882812 19.984375 C 20.511719 19.609375 20.007812 19.402344 19.480469 19.402344 C 19.15625 19.402344 18.851562 19.476562 18.585938 19.613281 L 14.636719 15.664062 C 14.675781 15.59375 14.710938 15.511719 14.738281 15.433594 L 17.609375 15.433594 C 17.886719 16.230469 18.636719 16.761719 19.480469 16.757812 C 20.007812 16.757812 20.511719 16.550781 20.886719 16.175781 C 21.257812 15.804688 21.464844 15.296875 21.464844 14.773438 C 21.464844 14.246094 21.257812 13.738281 20.882812 13.367188 C 20.511719 12.996094 20.007812 12.785156 19.480469 12.785156 C 18.636719 12.785156 17.886719 13.316406 17.609375 14.113281 L 14.738281 14.113281 C 14.457031 13.316406 13.707031 12.785156 12.863281 12.785156 Z M 12.863281 12.785156 "/>
<path style=" stroke:none;fill-rule:nonzero;fill:url(#linear3);" d="M 12.863281 12.785156 C 12.023438 12.785156 11.269531 13.316406 10.992188 14.113281 L 10.878906 14.113281 C 10.515625 14.113281 10.21875 14.40625 10.21875 14.773438 C 10.21875 15.136719 10.515625 15.433594 10.878906 15.433594 L 10.992188 15.433594 C 11.269531 16.230469 12.023438 16.761719 12.863281 16.757812 C 13.15625 16.757812 13.433594 16.695312 13.679688 16.582031 L 17.671875 20.570312 C 17.554688 20.828125 17.492188 21.105469 17.492188 21.386719 C 17.492188 22.488281 18.382812 23.371094 19.480469 23.371094 C 20.007812 23.375 20.511719 23.164062 20.886719 22.792969 C 21.257812 22.417969 21.464844 21.914062 21.464844 21.386719 C 21.464844 20.859375 21.257812 20.355469 20.882812 19.984375 C 20.511719 19.609375 20.007812 19.402344 19.480469 19.402344 C 19.15625 19.402344 18.851562 19.476562 18.585938 19.613281 L 14.636719 15.664062 C 14.675781 15.59375 14.710938 15.511719 14.738281 15.433594 L 17.609375 15.433594 C 17.886719 16.230469 18.636719 16.761719 19.480469 16.757812 C 20.007812 16.757812 20.511719 16.550781 20.886719 16.175781 C 21.257812 15.804688 21.464844 15.296875 21.464844 14.773438 C 21.464844 14.246094 21.257812 13.738281 20.882812 13.367188 C 20.511719 12.996094 20.007812 12.785156 19.480469 12.785156 C 18.636719 12.785156 17.886719 13.316406 17.609375 14.113281 L 14.738281 14.113281 C 14.457031 13.316406 13.707031 12.785156 12.863281 12.785156 Z M 12.863281 12.785156 "/>
<path style=" stroke:none;fill-rule:nonzero;fill:rgb(12.941177%,12.941177%,12.941177%);fill-opacity:1;" d="M 12.863281 12.695312 C 12.007812 12.691406 11.242188 13.21875 10.929688 14.015625 L 10.878906 14.015625 C 10.460938 14.015625 10.125 14.355469 10.125 14.773438 C 10.125 15.191406 10.460938 15.527344 10.878906 15.527344 L 10.929688 15.527344 C 11.242188 16.324219 12.007812 16.851562 12.863281 16.851562 C 13.148438 16.851562 13.410156 16.789062 13.65625 16.691406 L 17.5625 20.59375 C 17.460938 20.839844 17.402344 21.105469 17.402344 21.386719 C 17.402344 22.535156 18.332031 23.464844 19.480469 23.464844 C 20.03125 23.464844 20.5625 23.246094 20.949219 22.855469 C 21.339844 22.46875 21.558594 21.9375 21.558594 21.386719 C 21.558594 20.238281 20.628906 19.308594 19.480469 19.308594 C 19.167969 19.308594 18.875 19.382812 18.609375 19.507812 L 14.746094 15.644531 C 14.765625 15.609375 14.78125 15.570312 14.800781 15.527344 L 17.546875 15.527344 C 17.855469 16.324219 18.625 16.851562 19.480469 16.851562 C 20.03125 16.851562 20.5625 16.632812 20.949219 16.242188 C 21.339844 15.851562 21.558594 15.324219 21.558594 14.773438 C 21.558594 13.625 20.628906 12.691406 19.480469 12.695312 C 18.625 12.691406 17.855469 13.21875 17.546875 14.015625 L 14.796875 14.015625 C 14.488281 13.21875 13.71875 12.691406 12.863281 12.695312 Z M 12.863281 12.882812 C 13.691406 12.882812 14.390625 13.40625 14.648438 14.140625 L 14.738281 14.203125 L 17.609375 14.203125 L 17.695312 14.140625 C 17.960938 13.386719 18.679688 12.878906 19.480469 12.882812 C 19.980469 12.878906 20.464844 13.078125 20.820312 13.433594 C 21.171875 13.789062 21.371094 14.269531 21.371094 14.773438 C 21.371094 15.273438 21.175781 15.757812 20.820312 16.109375 C 20.464844 16.464844 19.984375 16.664062 19.480469 16.664062 C 18.675781 16.667969 17.960938 16.160156 17.695312 15.402344 L 17.609375 15.339844 L 14.738281 15.339844 L 14.648438 15.402344 C 14.621094 15.476562 14.589844 15.550781 14.550781 15.625 L 14.570312 15.734375 L 18.519531 19.679688 L 18.628906 19.699219 C 18.890625 19.5625 19.183594 19.496094 19.480469 19.496094 C 19.980469 19.496094 20.464844 19.691406 20.820312 20.046875 C 21.171875 20.402344 21.371094 20.882812 21.371094 21.386719 C 21.375 21.890625 21.175781 22.371094 20.820312 22.726562 C 20.464844 23.082031 19.984375 23.28125 19.480469 23.28125 C 18.976562 23.28125 18.496094 23.082031 18.140625 22.726562 C 17.785156 22.371094 17.585938 21.890625 17.589844 21.386719 C 17.589844 21.109375 17.648438 20.84375 17.757812 20.609375 L 17.734375 20.503906 L 13.746094 16.515625 L 13.644531 16.496094 C 13.40625 16.601562 13.144531 16.664062 12.863281 16.664062 C 12.0625 16.667969 11.347656 16.160156 11.078125 15.402344 L 10.992188 15.339844 L 10.878906 15.339844 C 10.726562 15.339844 10.582031 15.28125 10.476562 15.171875 C 10.371094 15.066406 10.3125 14.921875 10.3125 14.773438 C 10.3125 14.457031 10.566406 14.203125 10.878906 14.203125 L 10.992188 14.203125 L 11.078125 14.140625 C 11.347656 13.386719 12.0625 12.878906 12.863281 12.882812 Z M 12.863281 12.882812 "/>
</g>
</svg>

<svg xmlns="http://www.w3.org/2000/svg" width="32pt" height="32pt" viewBox="0 0 32 32"><defs><linearGradient id="a" gradientUnits="userSpaceOnUse" x1="254" y1="233.5" x2="254" y2="254.667" gradientTransform="matrix(.0625 0 0 .0625 0 13.439)"><stop offset="0" stop-opacity=".275"/><stop offset="1" stop-opacity="0"/></linearGradient><radialGradient id="b" gradientUnits="userSpaceOnUse" cx="450.909" cy="189.579" fx="450.909" fy="189.579" r="21.167" gradientTransform="matrix(0 -.07813 -.14064 0 54.115 63.595)"><stop offset="0" stop-opacity=".314"/><stop offset=".222" stop-opacity=".275"/><stop offset="1" stop-opacity="0"/></radialGradient><radialGradient id="c" gradientUnits="userSpaceOnUse" cx="450.909" cy="189.579" fx="450.909" fy="189.579" r="21.167" gradientTransform="matrix(0 .07813 .14064 0 -22.362 -7.527)"><stop offset="0" stop-opacity=".314"/><stop offset=".222" stop-opacity=".275"/><stop offset="1" stop-opacity="0"/></radialGradient><radialGradient id="d" gradientUnits="userSpaceOnUse" cx="450.909" cy="189.579" fx="450.909" fy="189.579" r="21.167" gradientTransform="matrix(0 -.07813 .14064 0 -22.362 63.595)"><stop offset="0" stop-opacity=".314"/><stop offset=".222" stop-opacity=".275"/><stop offset="1" stop-opacity="0"/></radialGradient><radialGradient id="e" gradientUnits="userSpaceOnUse" cx="450.909" cy="189.579" fx="450.909" fy="189.579" r="21.167" gradientTransform="matrix(0 .07813 -.14064 0 54.115 -7.527)"><stop offset="0" stop-opacity=".314"/><stop offset=".222" stop-opacity=".275"/><stop offset="1" stop-opacity="0"/></radialGradient><linearGradient id="f" gradientUnits="userSpaceOnUse" x1="254" y1="-147.5" x2="254" y2="-31.083" gradientTransform="matrix(.0625 0 0 .0625 0 13.439)"><stop offset="0" stop-color="#a4a4a4" stop-opacity="0"/><stop offset="1" stop-color="#fff" stop-opacity=".196"/></linearGradient><linearGradient id="g" gradientUnits="userSpaceOnUse" x1="254" y1="233.5" x2="254" y2="-105.167" gradientTransform="matrix(.0625 0 0 .0625 0 13.439)"><stop offset="0" stop-color="#585858" stop-opacity="0"/><stop offset="1" stop-color="#fafafa" stop-opacity=".196"/></linearGradient><linearGradient id="h" gradientUnits="userSpaceOnUse" x1="254" y1="-147.5" x2="254" y2="233.5" gradientTransform="matrix(.0625 0 0 .0625 0 13.439)"><stop offset="0" stop-color="#a4a4a4" stop-opacity="0"/><stop offset="1" stop-color="#fff" stop-opacity=".196"/></linearGradient></defs><path d="M3.969 28.035h23.816v1.32H3.97zm0 0" fill="url(#a)"/><path d="M27.785 28.035h2.645v-1.324h-2.645zm0 0" fill="url(#b)"/><path d="M3.969 28.035H1.324v1.32H3.97zm0 0" fill="url(#c)"/><path d="M3.969 28.035H1.324v-1.324H3.97zm0 0" fill="url(#d)"/><path d="M27.785 28.035h2.645v1.32h-2.645zm0 0" fill="url(#e)"/><path d="M7.277 4.219h21.5c.73 0 1.32.593 1.32 1.324v4.96c0 .731-.59 1.325-1.32 1.325h-21.5c-.73 0-1.324-.594-1.324-1.324V5.543c0-.73.594-1.324 1.324-1.324zm0 0" fill="#546e7a"/><path d="M7.277 4.219h21.5c.73 0 1.32.593 1.32 1.324v4.96c0 .731-.59 1.325-1.32 1.325h-21.5c-.73 0-1.324-.594-1.324-1.324V5.543c0-.73.594-1.324 1.324-1.324zm0 0" fill="url(#f)"/><path d="M7.277 4.219a1.32 1.32 0 0 0-1.324 1.324v.164c0-.734.59-1.324 1.324-1.324h21.5c.73 0 1.32.59 1.32 1.324v-.164a1.32 1.32 0 0 0-1.32-1.324zm0 0" fill="#e6e6e6" fill-opacity=".588"/><path d="M7.277 4.125c-.785 0-1.418.633-1.418 1.418v4.96c0 .782.633 1.419 1.418 1.419h21.5c.782 0 1.414-.637 1.414-1.418V5.543c0-.785-.632-1.418-1.414-1.418zm0 .188h21.5c.68 0 1.227.546 1.227 1.23v4.96c0 .684-.547 1.231-1.227 1.231h-21.5c-.683 0-1.23-.546-1.23-1.23V5.543c0-.684.547-1.23 1.23-1.23zm0 0" fill="#212121"/><path d="M2.645 6.863c-.73 0-1.32.594-1.32 1.324v18.524c0 .734.59 1.324 1.32 1.324h26.46a1.32 1.32 0 0 0 1.325-1.324V10.17H12.57a1.32 1.32 0 0 1-1.324-1.32V6.864zm0 0" fill="#78909c"/><path d="M2.645 6.863c-.73 0-1.32.594-1.32 1.324v18.524c0 .734.59 1.324 1.32 1.324h26.46a1.32 1.32 0 0 0 1.325-1.324V10.17H12.57a1.32 1.32 0 0 1-1.324-1.32V6.864zm0 0" fill="url(#g)"/><path d="M2.645 28.035c-.73 0-1.32-.59-1.32-1.324v-.164c0 .73.59 1.32 1.32 1.32h26.46a1.32 1.32 0 0 0 1.325-1.32v.164a1.32 1.32 0 0 1-1.325 1.324zm0 0" fill-opacity=".196"/><path d="M2.645 6.863c-.73 0-1.32.594-1.32 1.324v.168c0-.734.59-1.324 1.32-1.324h8.601v-.168zm0 0M12.484 10.254c-.73 0-1.32-.59-1.32-1.32v-.168c0 .734.59 1.324 1.32 1.324H30.43v.164zm0 0" fill="#e6e6e6" fill-opacity=".937"/><path d="M2.645 6.77c-.782 0-1.415.636-1.415 1.418V26.71c0 .785.633 1.418 1.415 1.418h26.46c.786 0 1.418-.633 1.418-1.418V9.984H12.57c-.683 0-1.23-.546-1.23-1.226V6.77zm0 .19h8.507v1.798c0 .781.633 1.414 1.418 1.414h17.766V26.71c0 .684-.547 1.23-1.23 1.23H2.644c-.68 0-1.227-.546-1.227-1.23V8.188c0-.684.547-1.227 1.227-1.227zm0 0" fill="#212121"/><path d="M12.863 12.79c-.867 0-1.601.55-1.87 1.32h-.114a.66.66 0 0 0-.66.663c0 .368.293.66.66.66h.113a1.976 1.976 0 0 0 1.871 1.325c.293 0 .57-.063.82-.176l3.985 3.988c-.11.25-.172.528-.172.817 0 1.101.883 1.984 1.984 1.984a1.98 1.98 0 0 0 1.985-1.984 1.982 1.982 0 0 0-1.985-1.985c-.324 0-.625.078-.894.211l-3.95-3.945c.04-.078.071-.152.102-.234h2.867a1.985 1.985 0 0 0 1.875 1.324 1.982 1.982 0 0 0 1.985-1.985 1.98 1.98 0 0 0-1.985-1.984c-.867 0-1.601.55-1.875 1.32h-2.867a1.987 1.987 0 0 0-1.875-1.32zm0 0" fill="#546e7a"/><path d="M12.863 12.79c-.867 0-1.601.55-1.87 1.32h-.114a.66.66 0 0 0-.66.663c0 .368.293.66.66.66h.113a1.976 1.976 0 0 0 1.871 1.325c.293 0 .57-.063.82-.176l3.985 3.988c-.11.25-.172.528-.172.817 0 1.101.883 1.984 1.984 1.984a1.98 1.98 0 0 0 1.985-1.984 1.982 1.982 0 0 0-1.985-1.985c-.324 0-.625.078-.894.211l-3.95-3.945c.04-.078.071-.152.102-.234h2.867a1.985 1.985 0 0 0 1.875 1.324 1.982 1.982 0 0 0 1.985-1.985 1.98 1.98 0 0 0-1.985-1.984c-.867 0-1.601.55-1.875 1.32h-2.867a1.987 1.987 0 0 0-1.875-1.32zm0 0" fill="url(#h)"/><path d="M12.863 12.695c-.883 0-1.629.547-1.933 1.32h-.051a.757.757 0 0 0 0 1.512h.05a2.078 2.078 0 0 0 1.934 1.325c.282 0 .547-.063.793-.165l3.906 3.91a2.072 2.072 0 0 0 1.918 2.867 2.075 2.075 0 0 0 2.079-2.077c0-1.149-.93-2.078-2.079-2.078-.312 0-.605.074-.87.199l-3.86-3.863.047-.118h2.75a2.077 2.077 0 0 0 4.012-.754c0-1.152-.93-2.078-2.079-2.078a2.07 2.07 0 0 0-1.933 1.32h-2.75a2.07 2.07 0 0 0-1.934-1.32zm0 .188c.828 0 1.528.523 1.785 1.258l.09.062h2.867l.09-.062a1.885 1.885 0 0 1 1.785-1.258c1.047 0 1.891.84 1.891 1.89 0 1.047-.844 1.891-1.89 1.891a1.889 1.889 0 0 1-1.786-1.262l-.09-.062h-2.867l-.09.062a1.903 1.903 0 0 1-.093.223l.015.11 3.95 3.945.109.02a1.887 1.887 0 0 1 2.742 1.688c0 1.05-.844 1.89-1.89 1.89-1.051 0-1.891-.84-1.891-1.891 0-.278.058-.543.164-.778l-.02-.105-3.984-3.988-.105-.02c-.239.11-.5.168-.782.168a1.884 1.884 0 0 1-1.781-1.262l-.09-.062h-.113a.562.562 0 0 1-.566-.567c0-.316.25-.57.566-.57h.113l.09-.062a1.88 1.88 0 0 1 1.781-1.258zm0 0" fill="#212121"/></svg>
